X: 100211
M: C|
L: 1/8
K: A
u((3EFG) |\
|: u(cd) |\
e2{g}a2 ecAc | d2{d}b2 BcdB | gbeg begb | ac'ea c'eac' |\
e'2c'2 a2e2 | fdBf ecAc | (B2{cBAB})(gf) edBG | Aaec A2 :|


